gama.ui.shared/icons_svg/dark/editor/word.wrap.svg

<svg height="25" viewBox="-634.483 -3263.748 25 25" width="25" xmlns="http://www.w3.org/2000/svg"><g fill="none"><path d="m-630.1427-3263.248h16.32c2.12075 0 3.84 1.719 3.84 3.84v16.32c0 2.1207-1.71925 3.84-3.84 3.84h-16.32c-2.1208 0-3.84-1.7193-3.84-3.84v-16.32c0-2.121 1.7192-3.84 3.84-3.84z" fill="#666"/><path d="m-630.1427-3263.248h16.32c2.12075 0 3.84 1.719 3.84 3.84v16.32c0 2.1207-1.71925 3.84-3.84 3.84h-16.32c-2.1208 0-3.84-1.7193-3.84-3.84v-16.32c0-2.121 1.7192-3.84 3.84-3.84z" stroke="#fff" stroke-linecap="round" stroke-linejoin="round" stroke-width=".25"/><path d="m-619.57384-3247.6925h3.36884c1.2267 0 2.22225-.9955 2.22225-2.2222v-5.3333c0-1.2267-.99555-2.2223-2.22225-2.2223h-3.5555c-.2489 0-.44445.1956-.44445.4443 0 .249.19555.4446.44445.4446h3.5555c.7378 0 1.33336.5954 1.33336 1.3334v5.3333c0 .7377-.59556 1.3333-1.33336 1.3333h-3.36884l1.9111-1.9111c.17778-.1778.17778-.4535 0-.6311-.17776-.1778-.45336-.1778-.63111 0l-2.66665 2.6666c-.1778.178-.1778.4534 0 .631l2.66665 2.6668c.17775.1778.45335.1778.63111 0 .17778-.1778.17778-.4533 0-.6311l-1.9111-1.9111zm-3.74221-8.8889c.24885 0 .44445-.1956.44445-.4446 0-.2487-.1956-.4443-.44445-.4443h-6.2222c-.24889 0-.44445.1956-.44445.4443 0 .249.19556.4446.44445.4446zm0 4.4444c.24885 0 .44445-.1955.44445-.4444s-.1956-.4446-.44445-.4446h-6.2222c-.24889 0-.44445.1957-.44445.4446s.19556.4444.44445.4444zm0 4.4445c.24885 0 .44445-.1955.44445-.4445s-.1956-.4444-.44445-.4444h-6.2222c-.24889 0-.44445.1954-.44445.4444s.19556.4445.44445.4445z" fill="#c0e0ff"/></g></svg>

<?xml version="1.0" encoding="UTF-8" standalone="no"?>
<!DOCTYPE svg PUBLIC "-//W3C//DTD SVG 1.1//EN" "http://www.w3.org/Graphics/SVG/1.1/DTD/svg11.dtd">
<svg xmlns="http://www.w3.org/2000/svg" xmlns:xl="http://www.w3.org/1999/xlink" version="1.1" xmlns:dc="http://purl.org/dc/elements/1.1/" viewBox="-634.4827 -3263.748 25 25" width="25" height="25">
  <defs/>
  <g id="SOURCES" stroke-opacity="1" fill="none" stroke="none" fill-opacity="1" stroke-dasharray="none">
    <title>SOURCES</title>
    <g id="SOURCES_Dark">
      <title>Dark</title>
      <g id="Graphic_11458">
        <path d="M -630.1427 -3263.248 L -613.8227 -3263.248 C -611.70195 -3263.248 -609.9827 -3261.529 -609.9827 -3259.408 L -609.9827 -3243.088 C -609.9827 -3240.9673 -611.70195 -3239.248 -613.8227 -3239.248 L -630.1427 -3239.248 C -632.2635 -3239.248 -633.9827 -3240.9673 -633.9827 -3243.088 L -633.9827 -3259.408 C -633.9827 -3261.529 -632.2635 -3263.248 -630.1427 -3263.248 Z" fill="#666"/>
        <path d="M -630.1427 -3263.248 L -613.8227 -3263.248 C -611.70195 -3263.248 -609.9827 -3261.529 -609.9827 -3259.408 L -609.9827 -3243.088 C -609.9827 -3240.9673 -611.70195 -3239.248 -613.8227 -3239.248 L -630.1427 -3239.248 C -632.2635 -3239.248 -633.9827 -3240.9673 -633.9827 -3243.088 L -633.9827 -3259.408 C -633.9827 -3261.529 -632.2635 -3263.248 -630.1427 -3263.248 Z" stroke="white" stroke-linecap="round" stroke-linejoin="round" stroke-width=".25"/>
      </g>
      <g id="Graphic_10948">
        <path d="M -619.57384 -3247.6925 L -616.205 -3247.6925 C -614.9783 -3247.6925 -613.98275 -3248.688 -613.98275 -3249.9147 L -613.98275 -3255.248 C -613.98275 -3256.4747 -614.9783 -3257.4703 -616.205 -3257.4703 L -619.7605 -3257.4703 C -620.0094 -3257.4703 -620.20495 -3257.2747 -620.20495 -3257.026 C -620.20495 -3256.777 -620.0094 -3256.5814 -619.7605 -3256.5814 L -616.205 -3256.5814 C -615.4672 -3256.5814 -614.87164 -3255.986 -614.87164 -3255.248 L -614.87164 -3249.9147 C -614.87164 -3249.177 -615.4672 -3248.5814 -616.205 -3248.5814 L -619.57384 -3248.5814 L -617.66274 -3250.4925 C -617.48496 -3250.6703 -617.48496 -3250.946 -617.66274 -3251.1236 C -617.8405 -3251.3014 -618.1161 -3251.3014 -618.29385 -3251.1236 L -620.9605 -3248.457 C -621.1383 -3248.279 -621.1383 -3248.0036 -620.9605 -3247.826 L -618.29385 -3245.1592 C -618.1161 -3244.9814 -617.8405 -3244.9814 -617.66274 -3245.1592 C -617.48496 -3245.337 -617.48496 -3245.6125 -617.66274 -3245.7903 L -619.57384 -3247.7014 Z M -623.31605 -3256.5814 C -623.0672 -3256.5814 -622.8716 -3256.777 -622.8716 -3257.026 C -622.8716 -3257.2747 -623.0672 -3257.4703 -623.31605 -3257.4703 L -629.53825 -3257.4703 C -629.78714 -3257.4703 -629.9827 -3257.2747 -629.9827 -3257.026 C -629.9827 -3256.777 -629.78714 -3256.5814 -629.53825 -3256.5814 Z M -623.31605 -3252.137 C -623.0672 -3252.137 -622.8716 -3252.3325 -622.8716 -3252.5814 C -622.8716 -3252.8303 -623.0672 -3253.026 -623.31605 -3253.026 L -629.53825 -3253.026 C -629.78714 -3253.026 -629.9827 -3252.8303 -629.9827 -3252.5814 C -629.9827 -3252.3325 -629.78714 -3252.137 -629.53825 -3252.137 Z M -623.31605 -3247.6925 C -623.0672 -3247.6925 -622.8716 -3247.888 -622.8716 -3248.137 C -622.8716 -3248.386 -623.0672 -3248.5814 -623.31605 -3248.5814 L -629.53825 -3248.5814 C -629.78714 -3248.5814 -629.9827 -3248.386 -629.9827 -3248.137 C -629.9827 -3247.888 -629.78714 -3247.6925 -629.53825 -3247.6925 Z" fill="#c0e0ff"/>
      </g>
    </g>
  </g>
</svg>
